_includes/icons/ios-superman.svg

<svg fill="#666" height="50" viewBox="0 0 50 50" width="50" xmlns="http://www.w3.org/2000/svg"><path d="m8.539063 9-6.851563 7.996094 23.3125 27.550781.765625-.902344 22.546875-26.648437-6.53125-7.621094c-.011719-.015625-.023437-.027344-.035156-.039062l-.289063-.335938zm.921875 2h3.746093c-2.542968 1.539063-5.457031 4.152344-6.820312 8.453125l-2.074219-2.449219zm15.5625 0c2.09375-.050781 3.671875.261719 4.882812.742188.15625.089843.242188.152343.421875.261718.574219.277344.960938.609375 1.359375.9375.480469.382813.917969.785157 1.289063 1.199219.242187.335938.476562.667969.609375.949219.113281.226562.261718.457031.292968.648437.046875.15625.136719.421875.136719.421875.078125.484375.496094.839844.984375.839844h6c.550781 0 1-.449219 1-1v-3.296875l3.6875 4.300781-4.160156 4.914063c-.300781-.617188-.730469-1.152344-1.253906-1.582031-1.050782-.859375-2.410157-1.355469-3.933594-1.6875-3.054688-.664063-6.839844-.648438-10.339844-.648438-3.246094 0-5.980469-.015625-7.746094-.359375-.878906-.167969-1.5-.425781-1.820312-.6875-.320313-.257812-.433594-.453125-.433594-.953125 0-.15625.167969-1.4375 1.332031-2.578125 1.167969-1.140625 3.382813-2.316406 7.691407-2.421875zm7.617187 0h3.636719c-.265625.460938-.324219.542969-.652344 1.144531-.230469.421875-.429687.832032-.640625 1.25-.050781-.070312-.085937-.152343-.140625-.222656-.109375-.136719-.265625-.226562-.382812-.359375-.148438-.199219-.171875-.363281-.351563-.5625-.394531-.4375-.890625-.859375-1.46875-1.25zm5.9375 0h1.421875v4h-3.59375c.265625-.5625.613281-1.242187.96875-1.894531.601563-1.101563 1-1.761719 1.203125-2.105469zm-21.609375.363281c-.300781.226563-.789062.390625-1.03125.628907-1.589844 1.554687-1.9375 3.164062-1.9375 4.007812 0 1 .453125 1.929688 1.175781 2.515625.726563.582031 1.644532.886719 2.699219 1.09375 2.113281.40625 4.878906.390625 8.125.390625 3.5 0 7.214844.015625 9.910156.601563 1.351563.292968 2.429688.734375 3.097657 1.28125.582031.476562.855468 1.03125.929687 1.804687-2.683594 3.148438-2.214844 2.492188-3.460937 3.851563-.144532-.457032-.328125-.90625-.679688-1.269532-.835937-.855468-2.128906-1.269531-3.796875-1.269531-6.5 0-11.742187 0-15.5625-.25-1.90625-.121094-3.460937-.308594-4.605469-.566406-1.144531-.261719-1.859375-.625-2.125-.890625-.886718-.886719-.933593-1.066406-1.609375-2.433594 1.554688-6.167969 6.550782-8.660156 8.871094-9.496094zm-4.800781 14.917969c1.171875.214844 2.539062.363281 4.144531.46875 3.929688.25 9.1875.25 15.6875.25 1.332031 0 2.039063.335938 2.359375.667969.324219.328125.425781.734375.285156 1.375-.097656.460937-.523437 1.015625-.921875 1.554687-.105468.105469-.769531.871094-.832031.933594-.640625.585938-1.34375 1.175781-2.261719 1.542969-1.117187.445312-2.453125.605469-3.652343.726562-.539063.050782-.9375.144532-1.539063.15625-.230469.003907-.40625.015625-.558594.015625-.09375-.539062-.257812-1.214843-.609375-1.921875-.746093-1.488281-2.4375-3.050781-5.269531-3.050781-1.609375 0-2.742187.269531-3.496094.574219-.148437.058594-.273437.121094-.394531.1875zm6.832031 4.71875c2.167969 0 2.976563.9375 3.480469 1.949219.203125.402344.132812.472656.207031.820312-2.292969-.246093-3.96875-.605468-4.171875-.671875l-1.753906-1.75c.519531-.164062 1.109375-.347656 2.238281-.347656zm11.140625 4.375-5.140625 6.078125-5.121094-6.054687c.984375.171875 2.191407.351562 3.589844.445312.144531.09375.3125.148438.488281.15625 0 0 .648438-.019531.878907-.015625.066406 0 .097656.015625.164062.015625.097656 0 .144531-.023437.238281-.023437.605469 0 1.0625-.097657 2.117188-.210938 1.066406-.109375 1.984375-.253906 2.785156-.390625z"/></svg>

<svg xmlns="http://www.w3.org/2000/svg" viewBox="0 0 50 50" width="50" height="50" fill="#666"><path d="M 8.539063 9 L 1.6875 16.996094 L 25 44.546875 L 25.765625 43.644531 L 48.3125 16.996094 L 41.78125 9.375 C 41.769531 9.359375 41.757813 9.347656 41.746094 9.335938 L 41.457031 9 Z M 9.460938 11 L 13.207031 11 C 10.664063 12.539063 7.75 15.152344 6.386719 19.453125 L 4.3125 17.003906 Z M 25.023438 11 C 27.117188 10.949219 28.695313 11.261719 29.90625 11.742188 C 30.0625 11.832031 30.148438 11.894531 30.328125 12.003906 C 30.902344 12.28125 31.289063 12.613281 31.6875 12.941406 C 32.167969 13.324219 32.605469 13.726563 32.976563 14.140625 C 33.21875 14.476563 33.453125 14.808594 33.585938 15.089844 C 33.699219 15.316406 33.847656 15.546875 33.878906 15.738281 C 33.925781 15.894531 34.015625 16.160156 34.015625 16.160156 C 34.09375 16.644531 34.511719 17 35 17 L 41 17 C 41.550781 17 42 16.550781 42 16 L 42 12.703125 L 45.6875 17.003906 L 41.527344 21.917969 C 41.226563 21.300781 40.796875 20.765625 40.273438 20.335938 C 39.222656 19.476563 37.863281 18.980469 36.339844 18.648438 C 33.285156 17.984375 29.5 18 26 18 C 22.753906 18 20.019531 17.984375 18.253906 17.640625 C 17.375 17.472656 16.753906 17.214844 16.433594 16.953125 C 16.113281 16.695313 16 16.5 16 16 C 16 15.84375 16.167969 14.5625 17.332031 13.421875 C 18.5 12.28125 20.714844 11.105469 25.023438 11 Z M 32.640625 11 L 36.277344 11 C 36.011719 11.460938 35.953125 11.542969 35.625 12.144531 C 35.394531 12.566406 35.195313 12.976563 34.984375 13.394531 C 34.933594 13.324219 34.898438 13.242188 34.84375 13.171875 C 34.734375 13.035156 34.578125 12.945313 34.460938 12.8125 C 34.3125 12.613281 34.289063 12.449219 34.109375 12.25 C 33.714844 11.8125 33.21875 11.390625 32.640625 11 Z M 38.578125 11 L 40 11 L 40 15 L 36.40625 15 C 36.671875 14.4375 37.019531 13.757813 37.375 13.105469 C 37.976563 12.003906 38.375 11.34375 38.578125 11 Z M 16.96875 11.363281 C 16.667969 11.589844 16.179688 11.753906 15.9375 11.992188 C 14.347656 13.546875 14 15.15625 14 16 C 14 17 14.453125 17.929688 15.175781 18.515625 C 15.902344 19.097656 16.820313 19.402344 17.875 19.609375 C 19.988281 20.015625 22.753906 20 26 20 C 29.5 20 33.214844 20.015625 35.910156 20.601563 C 37.261719 20.894531 38.339844 21.335938 39.007813 21.882813 C 39.589844 22.359375 39.863281 22.914063 39.9375 23.6875 C 37.253906 26.835938 37.722656 26.179688 36.476563 27.539063 C 36.332031 27.082031 36.148438 26.632813 35.796875 26.269531 C 34.960938 25.414063 33.667969 25 32 25 C 25.5 25 20.257813 25 16.4375 24.75 C 14.53125 24.628906 12.976563 24.441406 11.832031 24.183594 C 10.6875 23.921875 9.972656 23.558594 9.707031 23.292969 C 8.820313 22.40625 8.773438 22.226563 8.097656 20.859375 C 9.652344 14.691406 14.648438 12.199219 16.96875 11.363281 Z M 12.167969 26.28125 C 13.339844 26.496094 14.707031 26.644531 16.3125 26.75 C 20.242188 27 25.5 27 32 27 C 33.332031 27 34.039063 27.335938 34.359375 27.667969 C 34.683594 27.996094 34.785156 28.402344 34.644531 29.042969 C 34.546875 29.503906 34.121094 30.058594 33.722656 30.597656 C 33.617188 30.703125 32.953125 31.46875 32.890625 31.53125 C 32.25 32.117188 31.546875 32.707031 30.628906 33.074219 C 29.511719 33.519531 28.175781 33.679688 26.976563 33.800781 C 26.4375 33.851563 26.039063 33.945313 25.4375 33.957031 C 25.207031 33.960938 25.03125 33.972656 24.878906 33.972656 C 24.785156 33.433594 24.621094 32.757813 24.269531 32.050781 C 23.523438 30.5625 21.832031 29 19 29 C 17.390625 29 16.257813 29.269531 15.503906 29.574219 C 15.355469 29.632813 15.230469 29.695313 15.109375 29.761719 Z M 19 31 C 21.167969 31 21.976563 31.9375 22.480469 32.949219 C 22.683594 33.351563 22.613281 33.421875 22.6875 33.769531 C 20.394531 33.523438 18.71875 33.164063 18.515625 33.097656 L 16.761719 31.347656 C 17.28125 31.183594 17.871094 31 19 31 Z M 30.140625 35.375 L 25 41.453125 L 19.878906 35.398438 C 20.863281 35.570313 22.070313 35.75 23.46875 35.84375 C 23.613281 35.9375 23.78125 35.992188 23.957031 36 C 23.957031 36 24.605469 35.980469 24.835938 35.984375 C 24.902344 35.984375 24.933594 36 25 36 C 25.097656 36 25.144531 35.976563 25.238281 35.976563 C 25.84375 35.976563 26.300781 35.878906 27.355469 35.765625 C 28.421875 35.65625 29.339844 35.511719 30.140625 35.375 Z"/></svg>
